packages/core/src/svgs/mochi.svg

<svg width="24" height="24" viewBox="0 0 24 24" fill="none" xmlns="http://www.w3.org/2000/svg">
<g clip-path="url(#clip0_31_14133)">
<path d="M0 0H24V24H0V0Z" fill="#F0F3FA"/>
<path d="M11.9999 4.28564C14.0465 4.28621 16.0089 5.09974 17.4557 6.54725C18.9024 7.99476 19.7148 9.95769 19.7142 12.0042C19.7137 14.0507 18.9001 16.0132 17.4526 17.4599C16.0051 18.9066 14.0422 19.7191 11.9957 19.7185C9.94913 19.7179 7.98666 18.9044 6.53995 17.4569C5.09324 16.0094 4.2808 14.0465 4.28137 11.9999C4.28194 9.95341 5.09546 7.99093 6.54298 6.54422C7.99049 5.09751 9.95342 4.28508 11.9999 4.28564Z" fill="#D6EAFD"/>
<path d="M16.6586 5.85017C18.2608 7.07186 19.3214 8.87191 19.6137 10.8654C19.906 12.859 19.4068 14.8877 18.2227 16.518C17.0387 18.1482 15.2638 19.2505 13.2777 19.5891C11.2915 19.9278 9.25165 19.4759 7.59429 18.3302C5.99208 17.1085 4.93144 15.3084 4.63914 13.3149C4.34683 11.3214 4.84608 9.29261 6.03012 7.66239C7.21416 6.03216 8.98901 4.92988 10.9752 4.59122C12.9614 4.25257 15.0012 4.70442 16.6586 5.85017Z" fill="#95C2F1"/>
<path d="M15.7842 6.35593C16.9185 7.21075 17.7551 8.40079 18.1754 9.75747C18.5958 11.1142 18.5786 12.5687 18.1263 13.9151C17.6741 15.2615 16.8096 16.4314 15.6555 17.2592C14.5013 18.087 13.116 18.5307 11.6957 18.5274C10.2557 18.5274 8.92281 18.0774 7.82995 17.3145C6.69597 16.4599 5.85954 15.2703 5.43909 13.914C5.01864 12.5577 5.03547 11.1036 5.48719 9.75738C5.93892 8.4112 6.80266 7.24123 7.95611 6.41311C9.10957 5.58498 10.4943 5.14067 11.9142 5.14308C13.2964 5.14336 14.6454 5.5666 15.7799 6.35593H15.7842Z" fill="#5890D2"/>
<path d="M16.17 6.68553C17.304 7.54013 18.1404 8.72978 18.5608 10.086C18.9813 11.4423 18.9645 12.8965 18.5127 14.2427C18.061 15.5888 17.1973 16.7588 16.0438 17.5869C14.8904 18.4151 13.5056 18.8594 12.0857 18.857C10.6457 18.857 9.31283 18.407 8.21998 17.6441C7.0857 16.7893 6.24914 15.5993 5.82879 14.2426C5.40844 12.8859 5.42562 11.4313 5.87789 10.0849C6.33016 8.73856 7.19459 7.56861 8.34874 6.74082C9.50289 5.91303 10.8882 5.46936 12.3085 5.47267C13.7485 5.47267 15.0814 5.92267 16.1743 6.68553H16.17Z" fill="#B4D3F1"/>
<path d="M16.0072 6.54442C17.1414 7.39923 17.978 8.58927 18.3983 9.94596C18.8187 11.3026 18.8015 12.7572 18.3492 14.1036C17.897 15.45 17.0325 16.6199 15.8784 17.4477C14.7242 18.2755 13.3389 18.7192 11.9186 18.7158C10.4743 18.7158 9.14573 18.2658 8.04859 17.503C6.91431 16.6482 6.07775 15.4581 5.6574 14.1014C5.23705 12.7448 5.25423 11.2902 5.7065 9.94383C6.15877 8.59744 7.02321 7.42749 8.17735 6.5997C9.3315 5.77192 10.7168 5.32825 12.1372 5.33156C13.5814 5.33156 14.91 5.78156 16.0072 6.54442Z" fill="url(#paint0_linear_31_14133)"/>
<path d="M6.85718 13.2299C6.85718 13.2299 8.30146 16.2599 12.0857 16.2599C15.8743 16.2599 17.1343 13.1528 17.1343 13.1528L15.8915 10.5556C15.8915 10.5556 16.0072 10.0114 16.0072 9.32136C16.0072 8.63564 15.7929 7.28564 14.9957 7.28564C14.1943 7.28564 13.2857 8.57136 13.2857 8.57136C13.2857 8.57136 12 8.14279 10.7143 8.57136C10.7143 8.57136 9.81861 7.28564 9.14575 7.28564C8.47289 7.28564 7.93289 8.34422 7.93289 9.48422C7.93289 10.6242 8.04003 10.6242 8.04003 10.6242L6.85718 13.2299ZM8.73004 10.1185C8.73004 10.1185 8.68289 8.23279 9.37289 8.23279C9.88718 8.23279 10.1315 8.89279 10.1315 8.89279C10.1315 8.89279 9.18432 9.42422 8.73004 10.1185ZM14.7686 7.76136C15.5615 7.76136 15.1843 9.64707 15.1843 9.64707C14.6743 9.01707 13.8686 8.62279 13.8686 8.62279C13.8686 8.62279 14.2715 7.75707 14.7686 7.75707V7.76136Z" fill="url(#paint1_linear_31_14133)"/>
<path d="M7.18289 12.5143C7.67228 12.3151 8.20218 12.2356 8.72847 12.2826C9.25477 12.3295 9.76223 12.5016 10.2086 12.7843C10.2086 12.7843 10.98 12 12.0215 12C12.5357 12 13.1229 12.2143 13.71 12.7543C13.71 12.7543 15.18 11.7514 16.8857 12.6171L17.1429 13.1443C17.1429 13.1443 15.8743 16.2857 12.0943 16.2857C11.0256 16.3002 9.97319 16.0229 9.05037 15.4837C8.12754 14.9446 7.36926 14.1639 6.85718 13.2257L7.18289 12.5143Z" fill="#F6F4DF"/>
<path d="M10.2857 11.1431C10.5257 11.1431 10.7143 11.4345 10.7143 11.7859C10.7143 12.1459 10.5257 12.4288 10.2857 12.4288C10.0543 12.4288 9.85718 12.1374 9.85718 11.7859C9.86146 11.4345 10.0543 11.1431 10.2857 11.1431ZM13.7143 11.1431C13.9543 11.1431 14.1429 11.4345 14.1429 11.7859C14.1429 12.1459 13.9543 12.4288 13.7143 12.4288C13.4829 12.4288 13.2857 12.1374 13.2857 11.7859C13.2857 11.4345 13.4743 11.1431 13.7143 11.1431Z" fill="#2B2A29"/>
<path d="M13.5 9.85693C13.8557 9.85693 14.1429 10.0498 14.1429 10.2855C14.1429 10.5212 13.8557 10.7141 13.5 10.7141C13.1486 10.7141 12.8571 10.5212 12.8571 10.2855C12.8571 10.0498 13.1486 9.85693 13.5 9.85693ZM10.5814 9.87408C10.9286 9.93408 11.1814 10.1741 11.1386 10.3969C11.0957 10.6241 10.7743 10.7612 10.4186 10.6969C10.0714 10.6369 9.81857 10.3969 9.86143 10.1741C9.90428 9.94693 10.2257 9.80979 10.5814 9.87408Z" fill="#F6F4DF"/>
<path d="M10.7142 12.9688L10.9885 12.5317L11.1428 12.5788V12.7502C11.1428 12.7502 11.3571 13.0631 11.9271 13.0631V12.8574C11.5242 12.7845 11.3185 12.2488 11.3185 12.2488C11.9657 11.7174 12.8185 12.206 12.8185 12.206C12.8185 12.206 12.5314 12.7717 12.1242 12.8574V13.0588C12.1242 13.0588 12.3985 13.1317 12.8571 12.7888V12.5917L13.0157 12.5874L13.2857 13.0245L13.1571 13.0888L13.0157 12.9474C13.0157 12.9474 12.6728 13.286 12.0214 13.286C11.3699 13.286 10.9585 12.8745 10.9585 12.8745L10.7957 13.0031L10.7142 12.9688Z" fill="#2B2A29"/>
</g>
<defs>
<linearGradient id="paint0_linear_31_14133" x1="7.02859" y1="7.53013" x2="17.9143" y2="16.1016" gradientUnits="userSpaceOnUse">
<stop stop-color="#84B8EF"/>
<stop offset="0.73" stop-color="#0871DD"/>
</linearGradient>
<linearGradient id="paint1_linear_31_14133" x1="11.9957" y1="7.28564" x2="11.9957" y2="16.2599" gradientUnits="userSpaceOnUse">
<stop stop-color="#E5A507"/>
<stop offset="1" stop-color="#F4DA12"/>
</linearGradient>
<clipPath id="clip0_31_14133">
<rect width="24" height="24" fill="white"/>
</clipPath>
</defs>
</svg>

<svg xmlns="http://www.w3.org/2000/svg" width="24" height="24" fill="none" viewBox="0 0 24 24"><g clip-path="url(#a)"><path fill="#F0F3FA" d="M0 0h24v24H0z"/><path fill="#D6EAFD" d="M12 4.286a7.717 7.717 0 1 1-.004 15.433A7.717 7.717 0 0 1 12 4.286"/><path fill="#95C2F1" d="M16.659 5.85a7.714 7.714 0 0 1-9.065 12.48A7.714 7.714 0 0 1 16.66 5.85"/><path fill="#5890D2" d="M15.784 6.356a6.767 6.767 0 0 1-4.088 12.171c-1.44 0-2.773-.45-3.866-1.213a6.767 6.767 0 0 1 4.084-12.17c1.382 0 2.731.423 3.866 1.212z"/><path fill="#B4D3F1" d="M16.17 6.686a6.767 6.767 0 0 1-4.084 12.171c-1.44 0-2.773-.45-3.866-1.213a6.767 6.767 0 0 1 4.089-12.171c1.44 0 2.772.45 3.865 1.213z"/><path fill="url(#b)" d="M16.007 6.544a6.767 6.767 0 0 1-4.088 12.172 6.75 6.75 0 0 1-3.87-1.213 6.767 6.767 0 0 1 4.088-12.171c1.444 0 2.773.45 3.87 1.212"/><path fill="url(#c)" d="M6.857 13.23s1.444 3.03 5.229 3.03c3.788 0 5.048-3.107 5.048-3.107l-1.242-2.597s.115-.545.115-1.235c0-.685-.214-2.035-1.011-2.035-.802 0-1.71 1.285-1.71 1.285s-1.286-.428-2.572 0c0 0-.895-1.285-1.568-1.285S7.933 8.344 7.933 9.484s.107 1.14.107 1.14zm1.873-3.112s-.047-1.885.643-1.885c.514 0 .759.66.759.66s-.948.531-1.402 1.225m6.039-2.357c.793 0 .415 1.886.415 1.886-.51-.63-1.315-1.024-1.315-1.024s.402-.866.9-.866z"/><path fill="#F6F4DF" d="M7.183 12.514a3.32 3.32 0 0 1 3.026.27S10.98 12 12.022 12c.514 0 1.1.214 1.688.754 0 0 1.47-1.003 3.176-.137l.257.527s-1.269 3.142-5.049 3.142a5.88 5.88 0 0 1-5.237-3.06z"/><path fill="#2B2A29" d="M10.286 11.143c.24 0 .428.291.428.643 0 .36-.188.643-.428.643-.232 0-.429-.292-.429-.643.004-.351.197-.643.429-.643m3.428 0c.24 0 .429.291.429.643 0 .36-.189.643-.429.643-.231 0-.428-.292-.428-.643s.188-.643.428-.643"/><path fill="#F6F4DF" d="M13.5 9.857c.356 0 .643.193.643.429 0 .235-.287.428-.643.428-.351 0-.643-.193-.643-.428 0-.236.292-.43.643-.43m-2.919.017c.348.06.6.3.558.523-.043.227-.365.364-.72.3-.348-.06-.6-.3-.558-.523.043-.227.365-.364.72-.3"/><path fill="#2B2A29" d="m10.714 12.969.274-.437.155.047v.171s.214.313.784.313v-.206c-.403-.072-.608-.608-.608-.608.647-.532 1.5-.043 1.5-.043s-.288.566-.695.651v.202s.274.073.733-.27v-.197l.159-.005.27.438-.129.064-.141-.142s-.343.339-.995.339-1.062-.412-1.062-.412l-.163.13z"/></g><defs><linearGradient id="b" x1="7.029" x2="17.914" y1="7.53" y2="16.102" gradientUnits="userSpaceOnUse"><stop stop-color="#84B8EF"/><stop offset=".73" stop-color="#0871DD"/></linearGradient><linearGradient id="c" x1="11.996" x2="11.996" y1="7.286" y2="16.26" gradientUnits="userSpaceOnUse"><stop stop-color="#E5A507"/><stop offset="1" stop-color="#F4DA12"/></linearGradient><clipPath id="a"><path fill="#fff" d="M0 0h24v24H0z"/></clipPath></defs></svg>
